X:112
T:Midnight Flight
C:William Bay
N:TablEdited by Mike Stangeland
L:1/8
Q:1/4=150
M:4/4
K:D
z7/1^A, |: "Bm"B,C DE FB df | "Bbdim"za zg "F#7"f3^A, | "Bm"B,C DE FB cd | "F#7"e2 dc4=f | 
"Bm"f2 =f^f zd cB | "Bbdim"ag ^Af4=f | "Bm"fb ed "Bbdim"ag c^A | "F#7"fd c"Bm"B4z | 
"Bbdim"e=f ed c^A GE | "F#7#5"F=F E"Bm"D2B, z2 | "Bbdim"C^G A=G "F#7#5"Ff z^a | 
"Bm"bf =fe2d z2 | "F#7"ea2^d =dc' z2 | e'2 ^d'=d'2b fd | "F#7"cg fB "Bbdim"^Ae2=c | 
|1 e"F#7#5"^d =dB "Bm"z3^A, :|2 e"F#7#5"^d =dB "Bm"z4 | 


